uploads/global/teams_07.svg

<svg height="41" viewBox="0 0 41 41" width="41" xmlns="http://www.w3.org/2000/svg"><g fill="#04de47"><path d="m31.0034698 7.42051282v17.75641028c0 .3922638-.3181543.7102564-.7106176.7102564h-24.16099932v2.1307692c0 .3922638.31815435.7102564.71061763.7102564h26.29285219c.3924633 0 .7106176-.3179926.7106176-.7102564v-20.59743588z" opacity=".2"/><path d="m35.9777932 6h-31.26717557c-.39246328 0-.71061763.31799263-.71061763.71025641s.31815435.71025641.71061763.71025641h.71061762v20.59743588c.00125333 1.1762721.95498258 2.1295166 2.13185288 2.1307692h9.05710587l-2.5724358 4.6270365c-.0915681.1646871-.1139163.3589903-.0621264.5401493.0517898.181159.1734736.3343281.3382724.4257994.1055324.0589014.2244895.0895796.3453602.0890661.2583238.0001827.4964001-.1397622.6217904-.3654979l2.954606-5.3165534h4.2172314l2.9550323 5.3165534c.1252915.2255578.3631017.3654741.6212219.3654979.1205236.0001879.239067-.0306314.3442232-.0894923.1647988-.0914713.2864826-.2446404.3382724-.4257994.0517899-.181159.0294417-.3754622-.0621264-.5401493l-2.5712988-4.6266103h9.0571059c1.1768703-.0012526 2.1305995-.9544971 2.1318529-2.1307692v-20.59743588h.7106176c.3924633 0 .7106176-.31799263.7106176-.71025641s-.3181543-.71025641-.7106176-.71025641zm-2.1318529 22.0179487c0 .3922638-.3181543.7102564-.7106176.7102564h-25.58223457c-.39246327 0-.71061762-.3179926-.71061762-.7102564v-20.59743588h27.00346979z"/><path d="m23.1866759 25.8871795c.3924633 0 .7106176-.3179926.7106176-.7102564v-12.7846154c0-.3922638-.3181543-.7102564-.7106176-.7102564s-.7106176.3179926-.7106176.7102564v12.7846154c0 .3922638.3181543.7102564.7106176.7102564z"/><path d="m17.5017349 25.8871795c.3924633 0 .7106176-.3179926.7106176-.7102564v-5.6820513c0-.3922638-.3181543-.7102564-.7106176-.7102564s-.7106176.3179926-.7106176.7102564v5.6820513c0 .3922638.3181543.7102564.7106176.7102564z"/><path d="m11.8167939 25.8871795c.3924633 0 .7106176-.3179926.7106176-.7102564v-5.6820513c0-.3922638-.3181543-.7102564-.7106176-.7102564s-.7106176.3179926-.7106176.7102564v5.6820513c0 .3922638.3181543.7102564.7106176.7102564z"/><path d="m28.8716169 25.8871795c.3924633 0 .7106177-.3179926.7106177-.7102564v-8.5230769c0-.3922638-.3181544-.7102565-.7106177-.7102565-.3924632 0-.7106176.3179927-.7106176.7102565v8.5230769c0 .3922638.3181544.7102564.7106176.7102564z"/></g></svg>

<?xml version="1.0" encoding="UTF-8"?>
<svg width="41px" height="41px" viewBox="0 0 41 41" version="1.1" xmlns="http://www.w3.org/2000/svg" xmlns:xlink="http://www.w3.org/1999/xlink">
    <!-- Generator: Sketch 52.4 (67378) - http://www.bohemiancoding.com/sketch -->
    <title>assets/homepage/teams_07</title>
    <desc>Created with Sketch.</desc>
    <g id="Page-1" stroke="none" stroke-width="1" fill="none" fill-rule="evenodd">
        <g id="Wunder-Careers-03-Teams" transform="translate(-40.000000, -3027.000000)" fill="#04DE47" fill-rule="nonzero">
            <g id="Enginiering-Copy-4" transform="translate(10.000000, 2781.000000)">
                <g id="presentation-slide" transform="translate(30.000000, 246.000000)">
                    <path d="M31.0034698,7.42051282 L31.0034698,25.1769231 C31.0034698,25.5691869 30.6853155,25.8871795 30.2928522,25.8871795 L6.13185288,25.8871795 L6.13185288,28.0179487 C6.13185288,28.4102125 6.45000723,28.7282051 6.84247051,28.7282051 L33.1353227,28.7282051 C33.527786,28.7282051 33.8459403,28.4102125 33.8459403,28.0179487 L33.8459403,7.42051282 L31.0034698,7.42051282 Z" id="Path" opacity="0.200000003"></path>
                    <path d="M35.9777932,6 L4.71061763,6 C4.31815435,6 4,6.31799263 4,6.71025641 C4,7.10252019 4.31815435,7.42051282 4.71061763,7.42051282 L5.42123525,7.42051282 L5.42123525,28.0179487 C5.42248858,29.1942208 6.37621783,30.1474653 7.55308813,30.1487179 L16.610194,30.1487179 L14.0377582,34.7757544 C13.9461901,34.9404415 13.9238419,35.1347447 13.9756318,35.3159037 C14.0274216,35.4970627 14.1491054,35.6502318 14.3139042,35.7417031 C14.4194366,35.8006045 14.5383937,35.8312827 14.6592644,35.8307692 C14.9175882,35.8309519 15.1556645,35.691007 15.2810548,35.4652713 L18.2356608,30.1487179 L22.4528922,30.1487179 L25.4079245,35.4652713 C25.533216,35.6908291 25.7710262,35.8307454 26.0291464,35.8307692 C26.14967,35.8309571 26.2682134,35.8001378 26.3733696,35.7412769 C26.5381684,35.6498056 26.6598522,35.4966365 26.711642,35.3154775 C26.7634319,35.1343185 26.7410837,34.9400153 26.6495156,34.7753282 L24.0782168,30.1487179 L33.1353227,30.1487179 C34.312193,30.1474653 35.2659222,29.1942208 35.2671756,28.0179487 L35.2671756,7.42051282 L35.9777932,7.42051282 C36.3702565,7.42051282 36.6884108,7.10252019 36.6884108,6.71025641 C36.6884108,6.31799263 36.3702565,6 35.9777932,6 Z M33.8459403,28.0179487 C33.8459403,28.4102125 33.527786,28.7282051 33.1353227,28.7282051 L7.55308813,28.7282051 C7.16062486,28.7282051 6.84247051,28.4102125 6.84247051,28.0179487 L6.84247051,7.42051282 L33.8459403,7.42051282 L33.8459403,28.0179487 Z" id="Shape"></path>
                    <path d="M23.1866759,25.8871795 C23.5791392,25.8871795 23.8972935,25.5691869 23.8972935,25.1769231 L23.8972935,12.3923077 C23.8972935,12.0000439 23.5791392,11.6820513 23.1866759,11.6820513 C22.7942126,11.6820513 22.4760583,12.0000439 22.4760583,12.3923077 L22.4760583,25.1769231 C22.4760583,25.5691869 22.7942126,25.8871795 23.1866759,25.8871795 Z" id="Path"></path>
                    <path d="M17.5017349,25.8871795 C17.8941982,25.8871795 18.2123525,25.5691869 18.2123525,25.1769231 L18.2123525,19.4948718 C18.2123525,19.102608 17.8941982,18.7846154 17.5017349,18.7846154 C17.1092716,18.7846154 16.7911173,19.102608 16.7911173,19.4948718 L16.7911173,25.1769231 C16.7911173,25.5691869 17.1092716,25.8871795 17.5017349,25.8871795 Z" id="Path"></path>
                    <path d="M11.8167939,25.8871795 C12.2092572,25.8871795 12.5274115,25.5691869 12.5274115,25.1769231 L12.5274115,19.4948718 C12.5274115,19.102608 12.2092572,18.7846154 11.8167939,18.7846154 C11.4243306,18.7846154 11.1061763,19.102608 11.1061763,19.4948718 L11.1061763,25.1769231 C11.1061763,25.5691869 11.4243306,25.8871795 11.8167939,25.8871795 Z" id="Path"></path>
                    <path d="M28.8716169,25.8871795 C29.2640802,25.8871795 29.5822346,25.5691869 29.5822346,25.1769231 L29.5822346,16.6538462 C29.5822346,16.2615824 29.2640802,15.9435897 28.8716169,15.9435897 C28.4791537,15.9435897 28.1609993,16.2615824 28.1609993,16.6538462 L28.1609993,25.1769231 C28.1609993,25.5691869 28.4791537,25.8871795 28.8716169,25.8871795 Z" id="Path"></path>
                </g>
            </g>
        </g>
    </g>
</svg>
